X:1
T:Title
L:1/8
M:4/4
K:C
V:1
z2|:G3d2g2_e-|_e8G3d2g2_e-
|_e8G3d2g2_e-
|_e8G3d2g2_e-|
_e8_e8_A3_e3g2-:|g8
|A3e3g2-|g8|_B3f3g2-|g8|_B3f3g2-|g8|_E3_B3d2-|%14
d8|E3B3d2-|d8|F3c3d2-|d8|F3c3d2-|d8|G3d2g2_e-|_e8G3d2g2_e-|
_e8G3d2g2_e-
|_e8G3d2g2_e-
|_e8|

